X:18584
T:Wellington's
T:Black Eyed Sailor, The
R:reel
H:See also "Sheehan's", #120
D:De Danann: Star Spangled Molly
Z:id:hn-reel-569
M:C|
K:G
G2BG DGBG|~A3B cdec|~A3B BAAG|FADE FGAF|
G2BG DGBd|cBAB cdef|gedB c2Bc|dBcA BG~G2:|
|:g2bg dgbg|gbag fdde|f2af dfaf|gbag fdef|
[1 g2bg dgbg|g2ag fdef|gedB c2Bc|dBcA BG~G2:|
[2 ~g3b agab|~g3e fdef|gedB c2Bc|dBcA BG~G2||


